icons/1_Primary/Facebook.svg

<svg width="1024" height="1024" fill="none" xmlns="http://www.w3.org/2000/svg"><g clip-path="url(#a)"><path d="M512 1024c282.77 0 512-229.23 512-512S794.77 0 512 0 0 229.23 0 512s229.23 512 512 512Z" fill="#9ABEFF"/><path d="M552 766.4V587.6h59.7l11.4-74h-71v-48c0-20.2 9.9-40 41.7-40H626v-63s-29.3-5-57.3-5c-58.5 0-96.7 35.4-96.7 99.6v56.4h-65v74h65v178.9c-122.4-19.2-216-125.1-216-252.9 0-141.4 114.6-256 256-256s256 114.6 256 256c0 127.7-93.6 233.6-216 252.8Z" fill="#fff"/></g><defs><clipPath id="a"><path fill="#fff" d="M0 0h1024v1024H0z"/></clipPath></defs></svg>

<svg width="1024" height="1024" viewBox="0 0 1024 1024" fill="none" xmlns="http://www.w3.org/2000/svg">
<g clip-path="url(#clip0_2_2142)">
<path d="M512 1024C794.77 1024 1024 794.77 1024 512C1024 229.23 794.77 0 512 0C229.23 0 0 229.23 0 512C0 794.77 229.23 1024 512 1024Z" fill="#9ABEFF"/>
<path d="M552 766.4V587.6H611.7L623.1 513.6H552.1V465.6C552.1 445.4 562 425.6 593.8 425.6H626V362.6C626 362.6 596.7 357.6 568.7 357.6C510.2 357.6 472 393 472 457.2V513.6H407V587.6H472V766.5C349.6 747.3 256 641.4 256 513.6C256 372.2 370.6 257.6 512 257.6C653.4 257.6 768 372.2 768 513.6C768 641.3 674.4 747.2 552 766.4Z" fill="white"/>
</g>
<defs>
<clipPath id="clip0_2_2142">
<rect width="1024" height="1024" fill="white"/>
</clipPath>
</defs>
</svg>
